img/about/skill_ai.svg

<svg height="40" viewBox="0 0 40 40" width="40" xmlns="http://www.w3.org/2000/svg"><g fill="none" fill-rule="evenodd"><g fill-rule="nonzero" transform="translate(2 2)"><path d="m6.375 0h23.25c3.525 0 6.375 2.85 6.375 6.375v22.35c0 3.525-2.85 6.375-6.375 6.375h-23.25c-3.525 0-6.375-2.85-6.375-6.375v-22.35c0-3.525 2.85-6.375 6.375-6.375z" fill="#300"/><path d="m10.095 13.41h-5.58l-1.14 3.525c-.03.135-.15.225-.285.21h-2.82c-.165 0-.21-.09-.165-.27l4.83-13.905c.045-.15.09-.315.15-.495.06-.315.09-.645.09-.975-.015-.075.045-.15.12-.165h.045 3.84c.12 0 .18.045.195.12l5.475 15.45c.045.165 0 .24-.15.24h-3.135c-.105.015-.21-.06-.24-.165zm-4.71-3.045h3.81c-.09-.315-.21-.69-.345-1.08-.135-.405-.27-.84-.405-1.29-.15-.465-.285-.915-.435-1.38s-.285-.9-.405-1.335c-.12-.42-.225-.81-.33-1.17h-.03c-.135.645-.3 1.29-.51 1.935-.225.72-.45 1.47-.69 2.22-.21.765-.435 1.47-.66 2.1zm12.735-6.465c-.495.015-.975-.18-1.335-.525-.345-.375-.525-.87-.51-1.38-.015-.51.18-.99.54-1.335s.84-.525 1.335-.525c.585 0 1.035.18 1.365.525.33.36.51.84.495 1.335.015.51-.165 1.005-.525 1.38-.345.36-.855.555-1.365.525zm-1.68 13.02v-11.55c0-.15.06-.21.195-.21h2.97c.135 0 .195.075.195.21v11.55c0 .165-.06.24-.195.24h-2.94c-.15 0-.225-.09-.225-.24z" fill="#ff9a00" transform="translate(7.35 7.65)"/></g><path d="m0 0h40v40h-40z"/></g></svg>

<svg xmlns="http://www.w3.org/2000/svg" width="40" height="40" viewBox="0 0 40 40">
  <g fill="none" fill-rule="evenodd">
    <g fill-rule="nonzero" transform="translate(2 2)">
      <path fill="#300" d="M6.375,0 L29.625,0 C33.15,0 36,2.85 36,6.375 L36,28.725 C36,32.25 33.15,35.1 29.625,35.1 L6.375,35.1 C2.85,35.1 0,32.25 0,28.725 L0,6.375 C0,2.85 2.85,0 6.375,0 Z"/>
      <path fill="#FF9A00" d="M10.095 13.41L4.515 13.41 3.375 16.935C3.345 17.07 3.225 17.16 3.09 17.145L.27 17.145C.105 17.145.06 17.055.105 16.875L4.935 2.97C4.98 2.82 5.025 2.655 5.085 2.475 5.145 2.16 5.175 1.83 5.175 1.5 5.16 1.425 5.22 1.35 5.295 1.335 5.31 1.335 5.325 1.335 5.34 1.335L9.18 1.335C9.3 1.335 9.36 1.38 9.375 1.455L14.85 16.905C14.895 17.07 14.85 17.145 14.7 17.145L11.565 17.145C11.46 17.16 11.355 17.085 11.325 16.98L10.095 13.41zM5.385 10.365L9.195 10.365C9.105 10.05 8.985 9.675 8.85 9.285 8.715 8.88 8.58 8.445 8.445 7.995 8.295 7.53 8.16 7.08 8.01 6.615 7.86 6.15 7.725 5.715 7.605 5.28 7.485 4.86 7.38 4.47 7.275 4.11L7.245 4.11C7.11 4.755 6.945 5.4 6.735 6.045 6.51 6.765 6.285 7.515 6.045 8.265 5.835 9.03 5.61 9.735 5.385 10.365L5.385 10.365zM18.12 3.9C17.625 3.915 17.145 3.72 16.785 3.375 16.44 3 16.26 2.505 16.275 1.995 16.26 1.485 16.455 1.005 16.815.66 17.175.315 17.655.135 18.15.135 18.735.135 19.185.315 19.515.66 19.845 1.02 20.025 1.5 20.01 1.995 20.025 2.505 19.845 3 19.485 3.375 19.14 3.735 18.63 3.93 18.12 3.9zM16.44 16.92L16.44 5.37C16.44 5.22 16.5 5.16 16.635 5.16L19.605 5.16C19.74 5.16 19.8 5.235 19.8 5.37L19.8 16.92C19.8 17.085 19.74 17.16 19.605 17.16L16.665 17.16C16.515 17.16 16.44 17.07 16.44 16.92z" transform="translate(7.35 7.65)"/>
    </g>
    <rect width="40" height="40"/>
  </g>
</svg>
